packages/core/src/svgs/bora.svg

<svg width="24" height="24" viewBox="0 0 24 24" fill="none" xmlns="http://www.w3.org/2000/svg">
<g clip-path="url(#clip0_31_7302)">
<path d="M0 0H24V24H0V0Z" fill="url(#paint0_linear_31_7302)"/>
<path d="M12.7159 5.14307H7.12735C5.78592 5.14307 5.14307 6.57021 5.14307 7.24735V12.5916C5.14307 16.5431 8.85021 18.8574 11.9788 18.8574C17.3231 18.8574 18.8874 14.5845 18.8574 11.7559C18.8102 7.24735 14.9059 5.14307 12.7159 5.14307Z" fill="white"/>
<path d="M9.42878 8.91422V7.79993C9.42878 7.6285 9.28307 7.28564 8.80735 7.28564C8.33592 7.28564 8.14307 7.5985 8.14307 7.79993V10.9328C8.14307 11.2499 8.49449 11.5028 8.66592 11.5928C8.97021 11.7556 9.20164 11.6056 9.32592 11.3356C9.7845 10.3714 10.7059 9.4285 12.1802 9.4285C13.6545 9.4285 15.0002 10.4914 15.0002 12.1628C15.0002 13.8299 13.8216 14.9999 12.1802 14.9999C10.7402 14.9999 9.6045 13.7999 9.42878 13.2642C9.3345 12.9771 8.87164 12.6985 8.49449 12.9042C8.10878 13.1099 8.11735 13.6156 8.16878 13.8299C8.64449 15.1114 10.2688 16.3285 12.1802 16.2856C14.0916 16.2385 16.2859 14.9999 16.2859 12.1628C16.2859 9.32136 13.5774 8.14707 12.1802 8.14707C11.0788 8.14707 9.83592 8.63993 9.42878 8.9185V8.91422Z" fill="url(#paint1_linear_31_7302)"/>
<path d="M12.2145 13.2859C12.8062 13.2859 13.2859 12.8062 13.2859 12.2145C13.2859 11.6228 12.8062 11.1431 12.2145 11.1431C11.6228 11.1431 11.1431 11.6228 11.1431 12.2145C11.1431 12.8062 11.6228 13.2859 12.2145 13.2859Z" fill="#4B88EF"/>
</g>
<defs>
<linearGradient id="paint0_linear_31_7302" x1="3.74143" y1="3.41571" x2="20.1771" y2="20.9271" gradientUnits="userSpaceOnUse">
<stop stop-color="#8C62E6"/>
<stop offset="0.23" stop-color="#7E6AE8"/>
<stop offset="0.51" stop-color="#4E84F1"/>
<stop offset="0.74" stop-color="#21B1F3"/>
<stop offset="1" stop-color="#3CD5DF"/>
</linearGradient>
<linearGradient id="paint1_linear_31_7302" x1="8.14307" y1="7.85564" x2="15.4159" y2="14.9785" gradientUnits="userSpaceOnUse">
<stop stop-color="#7B6BE8"/>
<stop offset="0.5" stop-color="#5480EF"/>
<stop offset="1" stop-color="#2CA6F2"/>
</linearGradient>
<clipPath id="clip0_31_7302">
<rect width="24" height="24" fill="white"/>
</clipPath>
</defs>
</svg>

<svg xmlns="http://www.w3.org/2000/svg" width="24" height="24" fill="none" viewBox="0 0 24 24"><g clip-path="url(#a)"><path fill="url(#b)" d="M0 0h24v24H0z"/><path fill="#fff" d="M12.716 5.143H7.127c-1.341 0-1.984 1.427-1.984 2.104v5.345c0 3.951 3.707 6.265 6.836 6.265 5.344 0 6.908-4.272 6.878-7.101-.047-4.509-3.951-6.613-6.141-6.613"/><path fill="url(#c)" d="M9.429 8.914V7.8c0-.171-.146-.514-.622-.514-.471 0-.664.313-.664.514v3.133c0 .317.351.57.523.66.304.163.536.013.66-.257.458-.965 1.38-1.908 2.854-1.908S15 10.492 15 12.164C15 13.83 13.822 15 12.18 15c-1.44 0-2.575-1.2-2.751-1.736-.095-.287-.557-.566-.935-.36-.385.206-.377.712-.325.926.475 1.281 2.1 2.498 4.011 2.456 1.912-.048 4.106-1.286 4.106-4.123 0-2.842-2.709-4.016-4.106-4.016-1.101 0-2.344.493-2.751.771z"/><path fill="#4B88EF" d="M12.215 13.286a1.071 1.071 0 1 0 0-2.143 1.071 1.071 0 0 0 0 2.143"/></g><defs><linearGradient id="b" x1="3.741" x2="20.177" y1="3.416" y2="20.927" gradientUnits="userSpaceOnUse"><stop stop-color="#8C62E6"/><stop offset=".23" stop-color="#7E6AE8"/><stop offset=".51" stop-color="#4E84F1"/><stop offset=".74" stop-color="#21B1F3"/><stop offset="1" stop-color="#3CD5DF"/></linearGradient><linearGradient id="c" x1="8.143" x2="15.416" y1="7.856" y2="14.979" gradientUnits="userSpaceOnUse"><stop stop-color="#7B6BE8"/><stop offset=".5" stop-color="#5480EF"/><stop offset="1" stop-color="#2CA6F2"/></linearGradient><clipPath id="a"><path fill="#fff" d="M0 0h24v24H0z"/></clipPath></defs></svg>
